img/orderStage2.svg

<svg fill="none" height="68" viewBox="0 0 68 68" width="68" xmlns="http://www.w3.org/2000/svg"><g fill="#66c4ff"><path d="m48.6094 52.5938c-.7331 0-1.3282.595-1.3282 1.3281s.5951 1.3281 1.3282 1.3281 1.3281-.595 1.3281-1.3281-.595-1.3281-1.3281-1.3281z"/><path d="m51.8795 48.299-6.3126-2.1038-2.2662-4.5324c2.0416-2.078 3.4591-4.8275 3.9371-7.6953l.2826-1.6941h2.4171c2.197 0 3.9844-1.7874 3.9844-3.9843v-8.3672c0-10.98495-8.937-19.9219-19.9219-19.9219-11.0131 0-19.9219 8.91132-19.9219 19.9219v8.3672c0 1.7313 1.1105 3.2076 2.6563 3.7559v1.5566c0 2.1969 1.7874 3.9843 3.9844 3.9843h1.1663c.5758 1.2507 1.321 2.4091 2.2278 3.4497.1881.2162.3842.4258.5852.6297l-2.265 4.5299-6.3127 2.1039c-7.3399 2.4475-12.66728 10.1744-12.66728 18.3728 0 .7335.59461 1.3281 1.32813 1.3281h58.43755c.7333 0 1.3281-.5946 1.3281-1.3281 0-8.1984-5.3273-15.9253-12.6674-18.3729zm-.6139-20.0099c0 .7323-.5958 1.3281-1.3281 1.3281h-2.027c.3376-2.6151.5626-5.3979.6531-8.1388.0026-.0773.0047-.1524.0071-.2284h2.6949zm-33.2031 1.3281c-.7323 0-1.3281-.5958-1.3281-1.3281v-7.0391h2.6958c.0044.1385.009.2777.0142.4178.0001.0048.0004.0095.0005.0142v.0012c.093 2.6658.3151 5.3764.645 7.9339h-2.0274zm2.6563 5.3125c-.7324 0-1.3282-.5958-1.3282-1.3281v-1.3282h1.0888l.2826 1.6946c.054.3221.1202.6429.1969.9617zm-1.3259-16.3359h-2.6081c.6727-8.90128 8.1012-15.93755 17.2152-15.93755 9.0735 0 16.5346 7.03534 17.215 15.93755h-2.6077c-.0957-7.3349-6.0687-13.2813-13.4185-13.2813h-2.3773c-7.3497 0-13.3231 5.9464-13.4186 13.2813zm13.4184-10.62505h2.3774c5.9512 0 10.7679 4.86775 10.7644 10.81225 0 .418-.0033.7819-.0103 1.113 0 .0042-.0002.0086-.0002.013l-1.6612-.2373c-4.513-.6444-8.7741-2.775-11.9985-5.9994-.2492-.2491-.5869-.3891-.9391-.3891-3.5669 0-6.9812 1.6251-9.2382 4.3706.5562-5.4079 5.128-9.68305 10.7057-9.68305zm-9.099 26.96095c-.6648-2.2117-1.4256-8.7196-1.5937-12.8899l1.7875-2.3834c1.6417-2.1882 4.1958-3.5478 6.9128-3.7039 3.5749 3.4021 8.1997 5.6488 13.0869 6.3466l1.9553.2794c-.1307 2.7738-.3978 5.5573-.7804 8.1173-.0002.0008-.0003.0017-.0004.0026-.1217.8231-.2176 1.3527-.4625 2.8321-.7033 4.2188-3.8513 8.0338-8.0068 9.0728-1.7103.427-3.512.4269-5.2213 0-2.5948-.6486-4.974-2.444-6.5094-5.0174h2.7075c.5483 1.5458 2.0245 2.6563 3.756 2.6563h2.6562c2.2014 0 3.9844-1.7829 3.9844-3.9844 0-2.197-1.7874-3.9844-3.9844-3.9844h-2.6562c-1.77 0-3.2245 1.1433-3.7582 2.6563zm7.5198 10.3615c.9109.1919 1.8397.2901 2.7679.2901.7266 0 1.4534-.0609 2.1719-.1788l-2.3468 2.4818zm.7671 4.524-4.2126 4.4548c-1.1597-2.2199-2.1562-4.5301-2.9735-6.8952l1.5819-3.1639zm9.3807-6.0543 1.8067 3.6137c-.8186 2.3691-1.8154 4.6802-2.9739 6.8974l-4.5087-4.5088zm-11.3643-7.5031c0-.7332.5948-1.3281 1.3282-1.3281h2.6562c.7323 0 1.3281.5958 1.3281 1.3281 0 .7334-.5948 1.3281-1.3281 1.3281h-2.6562c-.7324 0-1.3282-.5958-1.3282-1.3281zm-23.8531 29.086c.52634-6.5794 4.905-12.5597 10.7979-14.5248l5.5906-1.8631c1.0243 2.8322 2.2932 5.585 3.7803 8.1998.0025.0045.0049.0091.0074.0134 0 .0002.0001.0002.0001.0003 1.0866 1.911 2.3095 3.7785 3.6354 5.5514l1.6338 2.623zm27.8375-1.1839-1.8012-2.8918c-.0202-.0324-.0417-.0638-.0646-.0944-1.0755-1.4346-2.0787-2.935-2.9925-4.4707l4.7365-5.0089 4.9908 4.9908c-.9198 1.5469-1.9265 3.0535-3.003 4.4885-.0651.0868.0272-.0499-1.866 2.9865zm2.392 1.1839 1.6337-2.6228c1.3317-1.7797 2.5634-3.6622 3.6608-5.5957.0067-.0117.0129-.0236.0195-.0353.0008-.0015.0016-.0028.0024-.0043 1.4683-2.5898 2.7239-5.3187 3.7406-8.1298l5.5904 1.8631c5.8931 1.9651 10.2718 7.9454 10.7981 14.5248z"/><path d="m57.846 59.9689c-.8876-1.7766-2.1877-3.3549-3.7598-4.5643-.5814-.4475-1.4152-.3387-1.8624.2427-.4473.5815-.3385 1.4153.2428 1.8626 1.2556.9659 2.2939 2.2267 3.003 3.6461.3285.6573 1.1267.9219 1.7817.5946.6561-.3278.9224-1.1254.5947-1.7817z"/></g></svg>

<svg width="68" height="68" viewBox="0 0 68 68" fill="none" xmlns="http://www.w3.org/2000/svg">
<path d="M48.6094 52.5938C47.8763 52.5938 47.2812 53.1888 47.2812 53.9219C47.2812 54.655 47.8763 55.25 48.6094 55.25C49.3425 55.25 49.9375 54.655 49.9375 53.9219C49.9375 53.1888 49.3425 52.5938 48.6094 52.5938Z" fill="#66C4FF"/>
<path d="M51.8795 48.299L45.5669 46.1952L43.3007 41.6628C45.3423 39.5848 46.7598 36.8353 47.2378 33.9675L47.5204 32.2734H49.9375C52.1345 32.2734 53.9219 30.486 53.9219 28.2891V19.9219C53.9219 8.93695 44.9849 0 34 0C22.9869 0 14.0781 8.91132 14.0781 19.9219V28.2891C14.0781 30.0204 15.1886 31.4967 16.7344 32.045V33.6016C16.7344 35.7985 18.5218 37.5859 20.7188 37.5859H21.8851C22.4609 38.8366 23.2061 39.995 24.1129 41.0356C24.301 41.2518 24.4971 41.4614 24.6981 41.6653L22.4331 46.1952L16.1204 48.2991C8.7805 50.7466 3.45312 58.4735 3.45312 66.6719C3.45312 67.4054 4.04773 68 4.78125 68H63.2188C63.9521 68 64.5469 67.4054 64.5469 66.6719C64.5469 58.4735 59.2196 50.7466 51.8795 48.299ZM51.2656 28.2891C51.2656 29.0214 50.6698 29.6172 49.9375 29.6172H47.9105C48.2481 27.0021 48.4731 24.2193 48.5636 21.4784C48.5662 21.4011 48.5683 21.326 48.5707 21.25H51.2656V28.2891ZM18.0625 29.6172C17.3302 29.6172 16.7344 29.0214 16.7344 28.2891V21.25H19.4302C19.4346 21.3885 19.4392 21.5277 19.4444 21.6678C19.4445 21.6726 19.4448 21.6773 19.4449 21.682C19.4449 21.6824 19.4449 21.6828 19.4449 21.6832C19.5379 24.349 19.76 27.0596 20.0899 29.6171H18.0625V29.6172ZM20.7188 34.9297C19.9864 34.9297 19.3906 34.3339 19.3906 33.6016V32.2734H20.4794L20.762 33.968C20.816 34.2901 20.8822 34.6109 20.9589 34.9297H20.7188ZM19.3929 18.5938H16.7848C17.4575 9.69252 24.886 2.65625 34 2.65625C43.0735 2.65625 50.5346 9.69159 51.215 18.5938H48.6073C48.5116 11.2589 42.5386 5.3125 35.1888 5.3125H32.8115C25.4618 5.3125 19.4884 11.2589 19.3929 18.5938ZM32.8113 7.96875H35.1887C41.1399 7.96875 45.9566 12.8365 45.9531 18.781C45.9531 19.199 45.9498 19.5629 45.9428 19.894C45.9428 19.8982 45.9426 19.9026 45.9426 19.907L44.2814 19.6697C39.7684 19.0253 35.5073 16.8947 32.2829 13.6703C32.0337 13.4212 31.696 13.2812 31.3438 13.2812C27.7769 13.2812 24.3626 14.9063 22.1056 17.6518C22.6618 12.2439 27.2336 7.96875 32.8113 7.96875ZM23.7123 34.9297C23.0475 32.718 22.2867 26.2101 22.1186 22.0398L23.9061 19.6564C25.5478 17.4682 28.1019 16.1086 30.8189 15.9525C34.3938 19.3546 39.0186 21.6013 43.9058 22.2991L45.8611 22.5785C45.7304 25.3523 45.4633 28.1358 45.0807 30.6958C45.0805 30.6966 45.0804 30.6975 45.0803 30.6984C44.9586 31.5215 44.8627 32.0511 44.6178 33.5305C43.9145 37.7493 40.7665 41.5643 36.611 42.6033C34.9007 43.0303 33.099 43.0302 31.3897 42.6033C28.7949 41.9547 26.4157 40.1593 24.8803 37.5859H27.5878C28.1361 39.1317 29.6123 40.2422 31.3438 40.2422H34C36.2014 40.2422 37.9844 38.4593 37.9844 36.2578C37.9844 34.0608 36.197 32.2734 34 32.2734H31.3438C29.5738 32.2734 28.1193 33.4167 27.5856 34.9297H23.7123ZM31.2321 45.2912C32.143 45.4831 33.0718 45.5813 34 45.5813C34.7266 45.5813 35.4534 45.5204 36.1719 45.4025L33.8251 47.8843L31.2321 45.2912ZM31.9992 49.8152L27.7866 54.27C26.6269 52.0501 25.6304 49.7399 24.8131 47.3748L26.395 44.2109L31.9992 49.8152ZM41.3799 43.7609L43.1866 47.3746C42.368 49.7437 41.3712 52.0548 40.2127 54.272L35.704 49.7632L41.3799 43.7609ZM30.0156 36.2578C30.0156 35.5246 30.6104 34.9297 31.3438 34.9297H34C34.7323 34.9297 35.3281 35.5255 35.3281 36.2578C35.3281 36.9912 34.7333 37.5859 34 37.5859H31.3438C30.6114 37.5859 30.0156 36.9901 30.0156 36.2578ZM6.1625 65.3438C6.68884 58.7644 11.0675 52.7841 16.9604 50.819L22.551 48.9559C23.5753 51.7881 24.8442 54.5409 26.3313 57.1557C26.3338 57.1602 26.3362 57.1648 26.3387 57.1691C26.3387 57.1693 26.3388 57.1693 26.3388 57.1694C27.4254 59.0804 28.6483 60.9479 29.9742 62.7208L31.608 65.3438H6.1625ZM34 64.1599L32.1988 61.2681C32.1786 61.2357 32.1571 61.2043 32.1342 61.1737C31.0587 59.7391 30.0555 58.2387 29.1417 56.703L33.8782 51.6941L38.869 56.6849C37.9492 58.2318 36.9425 59.7384 35.866 61.1734C35.8009 61.2602 35.8932 61.1235 34 64.1599ZM36.392 65.3438L38.0257 62.721C39.3574 60.9413 40.5891 59.0588 41.6865 57.1253C41.6932 57.1136 41.6994 57.1017 41.706 57.09C41.7068 57.0885 41.7076 57.0872 41.7084 57.0857C43.1767 54.4959 44.4323 51.767 45.449 48.9559L51.0394 50.819C56.9325 52.7841 61.3112 58.7644 61.8375 65.3438H36.392Z" fill="#66C4FF"/>
<path d="M57.846 59.9689C56.9584 58.1923 55.6583 56.614 54.0862 55.4046C53.5048 54.9571 52.671 55.0659 52.2238 55.6473C51.7765 56.2288 51.8853 57.0626 52.4666 57.5099C53.7222 58.4758 54.7605 59.7366 55.4696 61.156C55.7981 61.8133 56.5963 62.0779 57.2513 61.7506C57.9074 61.4228 58.1737 60.6252 57.846 59.9689Z" fill="#66C4FF"/>
</svg>
